icons/svg/emoticon-poop.svg

﻿<?xml version="1.0" encoding="utf-8"?>
<!DOCTYPE svg PUBLIC "-//W3C//DTD SVG 1.1//EN" "http://www.w3.org/Graphics/SVG/1.1/DTD/svg11.dtd">
<svg xmlns="http://www.w3.org/2000/svg" xmlns:xlink="http://www.w3.org/1999/xlink" version="1.1" baseProfile="full" width="24" height="24" viewBox="0 0 24.00 24.00" enable-background="new 0 0 24.00 24.00" xml:space="preserve">
	<path fill="#000000" fill-opacity="1" stroke-linejoin="round" d="M 9,11C 9.55228,11 10,11.8954 10,13C 10,14.1046 9.55228,15 9,15C 8.44771,15 8,14.1046 8,13C 8,11.8954 8.44771,11 9,11 Z M 15,11C 15.5523,11 16,11.8954 16,13C 16,14.1046 15.5523,15 15,15C 14.4477,15 14,14.1046 14,13C 14,11.8954 14.4477,11 15,11 Z M 9.75,1.75001C 9.75,1.75002 16,4 15,8C 15,8 19,8 17.25,11.5C 17.25,11.5 21.4629,11.9435 20.283,15.3363C 19.027,16.5265 18.6999,16.8796 17.5,17.75L 20.314,16.1433C 21.3451,16.6508 24.3737,18.4697 21,21C 17,24 11,21.25 9,21.25C 7,21.25 5,22 4,22C 3,22 2,21 2,19C 2,17 4,16 5,16C 5,16 2,13 7,11C 7,11 5,8 9,7C 9,7 8,6 9,5C 10,4 9.75,2.75001 9.75,1.75001 Z M 8,17C 9.33333,18.1667 10.6667,19.3333 12,19.3333C 13.3333,19.3333 14.6667,18.1667 16,17L 8,17 Z M 9,10C 7.89543,10 7,11.3431 7,13C 7,14.6569 7.89543,16 9,16C 10.1046,16 11,14.6569 11,13C 11,11.3431 10.1046,10 9,10 Z M 15,10C 13.8954,10 13,11.3431 13,13C 13,14.6569 13.8954,16 15,16C 16.1046,16 17,14.6569 17,13C 17,11.3431 16.1046,10 15,10 Z "/>
</svg>

<svg xmlns="http://www.w3.org/2000/svg" version="1.1" baseProfile="full" width="24" height="24" viewBox="0 0 24.00 24.00" xml:space="preserve"><path fill="#000" fill-opacity="1" stroke-linejoin="round" d="M9 11c.552 0 1 .895 1 2s-.448 2-1 2-1-.895-1-2 .448-2 1-2zm6 0c.552 0 1 .895 1 2s-.448 2-1 2-1-.895-1-2 .448-2 1-2zM9.75 1.75S16 4 15 8c0 0 4 0 2.25 3.5 0 0 4.213.444 3.033 3.836-1.256 1.19-1.583 1.544-2.783 2.414l2.814-1.607c1.03.508 4.06 2.327.686 4.857-4 3-10 .25-12 .25S5 22 4 22s-2-1-2-3 2-3 3-3c0 0-3-3 2-5 0 0-2-3 2-4 0 0-1-1 0-2s.75-2.25.75-3.25zM8 17c1.333 1.167 2.667 2.333 4 2.333 1.333 0 2.667-1.166 4-2.333H8zm1-7c-1.105 0-2 1.343-2 3s.895 3 2 3 2-1.343 2-3-.895-3-2-3zm6 0c-1.105 0-2 1.343-2 3s.895 3 2 3 2-1.343 2-3-.895-3-2-3z"/></svg>
